LT  90 
FD 50
FD 1
LT  1 
FD 1
LT  1 
FD 1
LT  1 
FD 1
LT  1 
FD 1
LT  1 
FD 1
LT  1 
FD 1
LT  1 
FD 1
LT  1 
FD 1
LT  1 
FD 1
LT  1 
FD 1
LT  1 
FD 1
LT  1 
FD 1
LT  1 
FD 1
LT  1 
FD 1
LT  1 
FD 1
LT  1 
FD 1
LT  1 
FD 1
LT  1 
FD 1
LT  1 
FD 1
LT  1 
FD 1
LT  1 
FD 1
LT  1 
FD 1
LT  1 
FD 1
LT  1 
FD 1
LT  1 
FD 1
LT  1 
FD 1
LT  1 
FD 1
LT  1 
FD 1
LT  1 
FD 1
LT  1 
FD 1
LT  1 
FD 1
LT  1 
FD 1
LT  1 
FD 1
LT  1 
FD 1
LT  1 
FD 1
LT  1 
FD 1
LT  1 
FD 1
LT  1 
FD 1
LT  1 
FD 1
LT  1 
FD 1
LT  1 
FD 1
LT  1 
FD 1
LT  1 
FD 1
LT  1 
FD 1
LT  1 
FD 1
LT  1 
FD 1
LT  1 
FD 1
LT  1 
FD 1
LT  1 
FD 1
LT  1 
FD 1
LT  1 
FD 1
LT  1 
FD 1
LT  1 
FD 1
LT  1 
FD 1
LT  1 
FD 1
LT  1 
FD 1
LT  1 
FD 1
LT  1 
FD 1
LT  1 
FD 1
LT  1 
FD 1
LT  1 
FD 1
LT  1 
FD 1
LT  1 
FD 1
LT  1 
FD 1
LT  1 
FD 1
LT  1 
FD 1
LT  1 
FD 1
LT  1 
FD 1
LT  1 
FD 1
LT  1 
FD 1
LT  1 
FD 1
LT  1 
FD 1
LT  1 
FD 1
LT  1 
FD 1
LT  1 
FD 1
LT  1 
FD 1
LT  1 
FD 1
LT  1 
FD 1
LT  1 
FD 1
LT  1 
FD 1
LT  1 
FD 1
LT  1 
FD 1
LT  1 
FD 1
LT  1 
FD 1
LT  1 
FD 1
LT  1 
FD 1
LT  1 
FD 1
LT  1 
FD 1
LT  1 
FD 1
LT  1 
FD 1
LT  1 
FD 1
LT  1 
FD 1
LT  1 
FD 1
LT  1 
FD 1
LT  1 
FD 1
LT  1 
FD 1
LT  1 
FD 1
LT  1 
FD 1
LT  1 
FD 1
LT  1 
FD 1
LT  1 
FD 1
LT  1 
FD 1
LT  1 
FD 1
LT  1 
FD 1
LT  1 
FD 1
LT  1 
FD 1
LT  1 
FD 1
LT  1 
FD 1
LT  1 
FD 1
LT  1 
FD 1
LT  1 
FD 1
LT  1 
FD 1
LT  1 
FD 1
LT  1 
FD 1
LT  1 
FD 1
LT  1 
FD 1
LT  1 
FD 1
LT  1 
FD 1
LT  1 
FD 1
LT  1 
FD 1
LT  1 
FD 1
LT  1 
FD 1
LT  1 
FD 1
LT  1 
FD 1
LT  1 
FD 1
LT  1 
FD 1
LT  1 
FD 1
LT  1 
FD 1
LT  1 
FD 1
LT  1 
FD 1
LT  1 
FD 1
LT  1 
FD 1
LT  1 
FD 1
LT  1 
FD 1
LT  1 
FD 1
LT  1 
FD 1
LT  1 
FD 1
LT  1 
FD 1
LT  1 
FD 1
LT  1 
FD 1
LT  1 
FD 1
LT  1 
FD 1
LT  1 
FD 1
LT  1 
FD 1
LT  1 
FD 1
LT  1 
FD 1
LT  1 
FD 1
LT  1 
FD 1
LT  1 
FD 1
LT  1 
FD 1
LT  1 
FD 1
LT  1 
FD 1
LT  1 
FD 1
LT  1 
FD 1
LT  1 
FD 1
LT  1 
FD 1
LT  1 
FD 1
LT  1 
FD 1
LT  1 
FD 1
LT  1 
FD 1
LT  1 
FD 1
LT  1 
FD 1
LT  1 
FD 1
LT  1 
FD 1
LT  1 
FD 1
LT  1 
FD 1
LT  1 
FD 1
LT  1 
FD 1
LT  1 
FD 1
LT  1 
FD 1
LT  1 
FD 1
LT  1 
FD 1
LT  1 
FD 1
LT  1 
FD 1
LT  1 
FD 1
LT  1 
FD 1
LT  1 
FD 1
LT  1 
FD 1
LT  1 
FD 1
LT  1 
FD 1
RT  1 
FD 1
RT  1 
FD 1
RT  1 
FD 1
RT  1 
FD 1
RT  1 
FD 1
RT  1 
FD 1
RT  1 
FD 1
RT  1 
FD 1
RT  1 
FD 1
RT  1 
FD 1
RT  1 
FD 1
RT  1 
FD 1
RT  1 
FD 1
RT  1 
FD 1
RT  1 
FD 1
RT  1 
FD 1
RT  1 
FD 1
RT  1 
FD 1
RT  1 
FD 1
RT  1 
FD 1
RT  1 
FD 1
RT  1 
FD 1
RT  1 
FD 1
RT  1 
FD 1
RT  1 
FD 1
RT  1 
FD 1
RT  1 
FD 1
RT  1 
FD 1
RT  1 
FD 1
RT  1 
FD 1
RT  1 
FD 1
RT  1 
FD 1
RT  1 
FD 1
RT  1 
FD 1
RT  1 
FD 1
RT  1 
FD 1
RT  1 
FD 1
RT  1 
FD 1
RT  1 
FD 1
RT  1 
FD 1
RT  1 
FD 1
RT  1 
FD 1
RT  1 
FD 1
RT  1 
FD 1
RT  1 
FD 1
RT  1 
FD 1
RT  1 
FD 1
RT  1 
FD 1
RT  1 
FD 1
RT  1 
FD 1
RT  1 
FD 1
RT  1 
FD 1
RT  1 
FD 1
RT  1 
FD 1
RT  1 
FD 1
RT  1 
FD 1
RT  1 
FD 1
RT  1 
FD 1
RT  1 
FD 1
RT  1 
FD 1
RT  1 
FD 1
RT  1 
FD 1
RT  1 
FD 1
RT  1 
FD 1
RT  1 
FD 1
RT  1 
FD 1
RT  1 
FD 1
RT  1 
FD 1
RT  1 
FD 1
RT  1 
FD 1
RT  1 
FD 1
RT  1 
FD 1
RT  1 
FD 1
RT  1 
FD 1
RT  1 
FD 1
RT  1 
FD 1
RT  1 
FD 1
RT  1 
FD 1
RT  1 
FD 1
RT  1 
FD 1
RT  1 
FD 1
RT  1 
FD 1
RT  1 
FD 1
RT  1 
FD 1
RT  1 
FD 1
RT  1 
FD 1
RT  1 
FD 1
RT  1 
FD 1
RT  1 
FD 1
RT  1 
FD 1
RT  1 
FD 1
RT  1 
FD 1
RT  1 
FD 1
RT  1 
FD 1
RT  1 
FD 1
RT  1 
FD 1
RT  1 
FD 1
RT  1 
FD 1
RT  1 
FD 1
RT  1 
FD 1
RT  1 
FD 1
RT  1 
FD 1
RT  1 
FD 1
RT  1 
FD 1
RT  1 
FD 1
RT  1 
FD 1
RT  1 
FD 1
RT  1 
FD 1
RT  1 
FD 1
RT  1 
FD 1
RT  1 
FD 1
RT  1 
FD 1
RT  1 
FD 1
RT  1 
FD 1
RT  1 
FD 1
RT  1 
FD 1
RT  1 
FD 1
RT  1 
FD 1
RT  1 
FD 1
RT  1 
FD 1
RT  1 
FD 1
RT  1 
FD 1
RT  1 
FD 1
RT  1 
FD 1
RT  1 
FD 1
RT  1 
FD 1
RT  1 
FD 1
RT  1 
FD 1
RT  1 
FD 1
RT  1 
FD 1
RT  1 
FD 1
RT  1 
FD 1
RT  1 
FD 1
RT  1 
FD 1
RT  1 
FD 1
RT  1 
FD 1
RT  1 
FD 1
RT  1 
FD 1
RT  1 
FD 1
RT  1 
FD 1
RT  1 
FD 1
RT  1 
FD 1
RT  1 
FD 1
RT  1 
FD 1
RT  1 
FD 1
RT  1 
FD 1
RT  1 
FD 1
RT  1 
FD 1
RT  1 
FD 1
RT  1 
FD 1
RT  1 
FD 1
RT  1 
FD 1
RT  1 
FD 1
RT  1 
FD 1
RT  1 
FD 1
RT  1 
FD 1
RT  1 
FD 1
RT  1 
FD 1
RT  1 
FD 1
RT  1 
FD 1
RT  1 
FD 1
RT  1 
FD 1
RT  1 
FD 1
RT  1 
FD 1
RT  1 
FD 1
RT  1 
FD 1
RT  1 
FD 1
RT  1 
FD 1
RT  1 
FD 1
RT  1 
FD 1
RT  1 
FD 1
RT  1 
FD 1
RT  1 
FD 1
RT  1 
FD 1
RT  1 
FD 1
RT  1 
FD 1
RT  1 
FD 1
RT  1 
FD 1
RT  1 
FD 1
RT  1 
FD 50

FD 210
BK 210
RT  90 
FD 120

RT  10 
FD 200
RT  150 
FD 200
BK 100
RT  120 
FD 50

LT  90 
FD 50
FD 1
LT  1 
FD 1
LT  1 
FD 1
LT  1 
FD 1
LT  1 
FD 1
LT  1 
FD 1
LT  1 
FD 1
LT  1 
FD 1
LT  1 
FD 1
LT  1 
FD 1
LT  1 
FD 1
LT  1 
FD 1
LT  1 
FD 1
LT  1 
FD 1
LT  1 
FD 1
LT  1 
FD 1
LT  1 
FD 1
LT  1 
FD 1
LT  1 
FD 1
LT  1 
FD 1
LT  1 
FD 1
LT  1 
FD 1
LT  1 
FD 1
LT  1 
FD 1
LT  1 
FD 1
LT  1 
FD 1
LT  1 
FD 1
LT  1 
FD 1
LT  1 
FD 1
LT  1 
FD 1
LT  1 
FD 1
LT  1 
FD 1
LT  1 
FD 1
LT  1 
FD 1
LT  1 
FD 1
LT  1 
FD 1
LT  1 
FD 1
LT  1 
FD 1
LT  1 
FD 1
LT  1 
FD 1
LT  1 
FD 1
LT  1 
FD 1
LT  1 
FD 1
LT  1 
FD 1
LT  1 
FD 1
LT  1 
FD 1
LT  1 
FD 1
LT  1 
FD 1
LT  1 
FD 1
LT  1 
FD 1
LT  1 
FD 1
LT  1 
FD 1
LT  1 
FD 1
LT  1 
FD 1
LT  1 
FD 1
LT  1 
FD 1
LT  1 
FD 1
LT  1 
FD 1
LT  1 
FD 1
LT  1 
FD 1
LT  1 
FD 1
LT  1 
FD 1
LT  1 
FD 1
LT  1 
FD 1
LT  1 
FD 1
LT  1 
FD 1
LT  1 
FD 1
LT  1 
FD 1
LT  1 
FD 1
LT  1 
FD 1
LT  1 
FD 1
LT  1 
FD 1
LT  1 
FD 1
LT  1 
FD 1
LT  1 
FD 1
LT  1 
FD 1
LT  1 
FD 1
LT  1 
FD 1
LT  1 
FD 1
LT  1 
FD 1
LT  1 
FD 1
LT  1 
FD 1
LT  1 
FD 1
LT  1 
FD 1
LT  1 
FD 1
LT  1 
FD 1
LT  1 
FD 1
LT  1 
FD 1
LT  1 
FD 1
LT  1 
FD 1
LT  1 
FD 1
LT  1 
FD 1
LT  1 
FD 1
LT  1 
FD 1
LT  1 
FD 1
LT  1 
FD 1
LT  1 
FD 1
LT  1 
FD 1
LT  1 
FD 1
LT  1 
FD 1
LT  1 
FD 1
LT  1 
FD 1
LT  1 
FD 1
LT  1 
FD 1
LT  1 
FD 1
LT  1 
FD 1
LT  1 
FD 1
LT  1 
FD 1
LT  1 
FD 1
LT  1 
FD 1
LT  1 
FD 1
LT  1 
FD 1
LT  1 
FD 1
LT  1 
FD 1
LT  1 
FD 1
LT  1 
FD 1
LT  1 
FD 1
LT  1 
FD 1
LT  1 
FD 1
LT  1 
FD 1
LT  1 
FD 1
LT  1 
FD 1
LT  1 
FD 1
LT  1 
FD 1
LT  1 
FD 1
LT  1 
FD 1
LT  1 
FD 1
LT  1 
FD 1
LT  1 
FD 1
LT  1 
FD 1
LT  1 
FD 1
LT  1 
FD 1
LT  1 
FD 1
LT  1 
FD 1
LT  1 
FD 1
LT  1 
FD 1
LT  1 
FD 1
LT  1 
FD 1
LT  1 
FD 1
LT  1 
FD 1
LT  1 
FD 1
LT  1 
FD 1
LT  1 
FD 1
LT  1 
FD 1
LT  1 
FD 1
LT  1 
FD 1
LT  1 
FD 1
LT  1 
FD 1
LT  1 
FD 1
LT  1 
FD 1
LT  1 
FD 1
LT  1 
FD 1
LT  1 
FD 1
LT  1 
FD 1
LT  1 
FD 1
LT  1 
FD 1
LT  1 
FD 1
LT  1 
FD 1
LT  1 
FD 1
LT  1 
FD 1
LT  1 
FD 1
LT  1 
FD 1
LT  1 
FD 1
LT  1 
FD 1
LT  1 
FD 1
LT  1 
FD 1
LT  1 
FD 1
LT  1 
FD 1
LT  1 
FD 1
LT  1 
FD 1
LT  1 
FD 1
LT  1 
FD 1
LT  1 
FD 1
LT  1 
FD 1
LT  1 
FD 1
LT  1 
FD 1
LT  1 
FD 1
LT  1 
FD 1
LT  1 
FD 1
LT  1 
FD 1
LT  1 
FD 1
RT  1 
FD 1
RT  1 
FD 1
RT  1 
FD 1
RT  1 
FD 1
RT  1 
FD 1
RT  1 
FD 1
RT  1 
FD 1
RT  1 
FD 1
RT  1 
FD 1
RT  1 
FD 1
RT  1 
FD 1
RT  1 
FD 1
RT  1 
FD 1
RT  1 
FD 1
RT  1 
FD 1
RT  1 
FD 1
RT  1 
FD 1
RT  1 
FD 1
RT  1 
FD 1
RT  1 
FD 1
RT  1 
FD 1
RT  1 
FD 1
RT  1 
FD 1
RT  1 
FD 1
RT  1 
FD 1
RT  1 
FD 1
RT  1 
FD 1
RT  1 
FD 1
RT  1 
FD 1
RT  1 
FD 1
RT  1 
FD 1
RT  1 
FD 1
RT  1 
FD 1
RT  1 
FD 1
RT  1 
FD 1
RT  1 
FD 1
RT  1 
FD 1
RT  1 
FD 1
RT  1 
FD 1
RT  1 
FD 1
RT  1 
FD 1
RT  1 
FD 1
RT  1 
FD 1
RT  1 
FD 1
RT  1 
FD 1
RT  1 
FD 1
RT  1 
FD 1
RT  1 
FD 1
RT  1 
FD 1
RT  1 
FD 1
RT  1 
FD 1
RT  1 
FD 1
RT  1 
FD 1
RT  1 
FD 1
RT  1 
FD 1
RT  1 
FD 1
RT  1 
FD 1
RT  1 
FD 1
RT  1 
FD 1
RT  1 
FD 1
RT  1 
FD 1
RT  1 
FD 1
RT  1 
FD 1
RT  1 
FD 1
RT  1 
FD 1
RT  1 
FD 1
RT  1 
FD 1
RT  1 
FD 1
RT  1 
FD 1
RT  1 
FD 1
RT  1 
FD 1
RT  1 
FD 1
RT  1 
FD 1
RT  1 
FD 1
RT  1 
FD 1
RT  1 
FD 1
RT  1 
FD 1
RT  1 
FD 1
RT  1 
FD 1
RT  1 
FD 1
RT  1 
FD 1
RT  1 
FD 1
RT  1 
FD 1
RT  1 
FD 1
RT  1 
FD 1
RT  1 
FD 1
RT  1 
FD 1
RT  1 
FD 1
RT  1 
FD 1
RT  1 
FD 1
RT  1 
FD 1
RT  1 
FD 1
RT  1 
FD 1
RT  1 
FD 1
RT  1 
FD 1
RT  1 
FD 1
RT  1 
FD 1
RT  1 
FD 1
RT  1 
FD 1
RT  1 
FD 1
RT  1 
FD 1
RT  1 
FD 1
RT  1 
FD 1
RT  1 
FD 1
RT  1 
FD 1
RT  1 
FD 1
RT  1 
FD 1
RT  1 
FD 1
RT  1 
FD 1
RT  1 
FD 1
RT  1 
FD 1
RT  1 
FD 1
RT  1 
FD 1
RT  1 
FD 1
RT  1 
FD 1
RT  1 
FD 1
RT  1 
FD 1
RT  1 
FD 1
RT  1 
FD 1
RT  1 
FD 1
RT  1 
FD 1
RT  1 
FD 1
RT  1 
FD 1
RT  1 
FD 1
RT  1 
FD 1
RT  1 
FD 1
RT  1 
FD 1
RT  1 
FD 1
RT  1 
FD 1
RT  1 
FD 1
RT  1 
FD 1
RT  1 
FD 1
RT  1 
FD 1
RT  1 
FD 1
RT  1 
FD 1
RT  1 
FD 1
RT  1 
FD 1
RT  1 
FD 1
RT  1 
FD 1
RT  1 
FD 1
RT  1 
FD 1
RT  1 
FD 1
RT  1 
FD 1
RT  1 
FD 1
RT  1 
FD 1
RT  1 
FD 1
RT  1 
FD 1
RT  1 
FD 1
RT  1 
FD 1
RT  1 
FD 1
RT  1 
FD 1
RT  1 
FD 1
RT  1 
FD 1
RT  1 
FD 1
RT  1 
FD 1
RT  1 
FD 1
RT  1 
FD 1
RT  1 
FD 1
RT  1 
FD 1
RT  1 
FD 1
RT  1 
FD 1
RT  1 
FD 1
RT  1 
FD 1
RT  1 
FD 1
RT  1 
FD 1
RT  1 
FD 1
RT  1 
FD 1
RT  1 
FD 1
RT  1 
FD 1
RT  1 
FD 1
RT  1 
FD 1
RT  1 
FD 1
RT  1 
FD 1
RT  1 
FD 1
RT  1 
FD 1
RT  1 
FD 1
RT  1 
FD 1
RT  1 
FD 1
RT  1 
FD 1
RT  1 
FD 50

FD 100
BK 200
FD 100
RT  90 
FD 100
RT  90 
FD 100
BK 200

